X:18292
T:Villa de Mieres
T:La Cuesta La Reboll
R:Valse
C:Tradicional
S:Msica Tradicional Asturiana, (C) Tello & Tito. Asturies, 2001.
S:http://pagina.de/MusTradAst <telloytito@asturies.org>
O:Mieres
A:Asturies
Z:Les cuarenta principales
M:3/4
L:1/4
Q:3/4=70
K:C
G,
|: CCC|C2 D|ECE|EFE|D2 C|[1 B, C2-|C2 G, :|[2 B, C2-|C2 E|
|: F2 F|FED|ECE|EFE|D2 C|[1 B, C2-|C2 E :|[2 B, C2-|C2 G,||
